src/16/actions/dialog-scripts.svg

<svg xmlns="http://www.w3.org/2000/svg" viewBox="0 0 16 16">
  <defs id="defs3051">
    <style type="text/css" id="current-color-scheme">
      .ColorScheme-Text {
        color:#5d656b;
      }
      </style>
  </defs>
 <path style="fill:currentColor;fill-opacity:1;stroke:none" 
     d="M 2 2 L 2 14 L 14 14 L 14 2 L 2 2 z M 3 3 L 13 3 L 13 13 L 3 13 L 3 3 z M 4.71875 4 L 4 4.6875 L 6.625 7.5 L 4.03125 10.3125 L 4.71875 11 L 7.6875 7.84375 L 8 7.5 L 7.6875 7.15625 L 4.71875 4 z M 8 11 L 8 12 L 12 12 L 12 11 L 8 11 z "
     class="ColorScheme-Text"
     />
</svg>

<svg xmlns="http://www.w3.org/2000/svg" viewBox="0 0 16 16"><path d="M2 2v12h12V2H2zm1 1h10v10H3V3zm1.719 1L4 4.688 6.625 7.5l-2.594 2.813.688.687 2.968-3.156L8 7.5l-.313-.344L4.72 4zM8 11v1h4v-1H8z" fill="currentColor" color="#5d656b"/></svg>
